modules/stroke-7/icons/phone.svg

<?xml version="1.0" encoding="utf-8"?>
<!-- Generated by IcoMoon.io -->
<!DOCTYPE svg PUBLIC "-//W3C//DTD SVG 1.1//EN" "http://www.w3.org/Graphics/SVG/1.1/DTD/svg11.dtd">
<svg version="1.1" xmlns="http://www.w3.org/2000/svg" xmlns:xlink="http://www.w3.org/1999/xlink" width="32" height="32" viewBox="0 0 32 32">
<g id="icomoon-ignore">
</g>
<path d="M23.086 1.606h-14.173c-0.797 0-1.444 0.647-1.444 1.444v25.901c0 0.798 0.647 1.444 1.444 1.444h14.173c0.797 0 1.444-0.646 1.444-1.444v-25.901c0-0.797-0.647-1.444-1.444-1.444zM23.464 28.951c0 0.208-0.169 0.377-0.377 0.377h-14.173c-0.208 0-0.377-0.169-0.377-0.377v-4.95h14.928v4.95zM23.464 22.934h-14.928v-17.042h14.928v17.042zM23.464 4.826h-14.928v-1.776c0-0.208 0.169-0.378 0.377-0.378h14.173c0.208 0 0.377 0.17 0.377 0.378v1.776z" fill="#000000"></path>
<path d="M14.401 26.129h3.199v1.066h-3.199v-1.066z" fill="#000000"></path>
</svg>

<svg xmlns="http://www.w3.org/2000/svg" width="32" height="32"><path d="M23.086 1.606H8.913c-.797 0-1.444.647-1.444 1.444v25.901c0 .798.647 1.444 1.444 1.444h14.173c.797 0 1.444-.646 1.444-1.444V3.05c0-.797-.647-1.444-1.444-1.444zm.378 27.345a.377.377 0 0 1-.377.377H8.914a.377.377 0 0 1-.377-.377v-4.95h14.928v4.95zm0-6.017H8.536V5.892h14.928v17.042zm0-18.108H8.536V3.05c0-.208.169-.378.377-.378h14.173c.208 0 .377.17.377.378v1.776z"/><path d="M14.401 26.129H17.6v1.066h-3.199v-1.066z"/></svg>
